assets/images/logos/logo-american-red-cross.svg

<svg height="158.93318" width="468.85611" xmlns="http://www.w3.org/2000/svg"><g transform="translate(-361.68805 -462.29359)"><path d="m0 0h-12.61v12.609h-12.609v-12.609h-12.61v-12.609h12.61v-12.61h12.609v12.61h12.61z" fill="#f00" transform="matrix(4.1485983 0 0 -4.1485983 519.62538 515.60327)"/><path d="m0 0h-.981v1.688h.971c.341 0 1.139-.005 1.139-.842 0-.854-.82-.846-1.129-.846m1.727-1.038.12.048c.307.123.571.227.824.498.339.344.51.825.51 1.372 0 .7-.303 1.618-1.155 1.98-.448.189-1.133.212-1.682.212h-3.386v-6.939h2.061v2.511h.756l1.387-2.511h2.272c-.116.192-1.666 2.761-1.666 2.761z" transform="matrix(5.2716063 0 0 -5.2716063 590.48265 547.35171)"/><path d="m0 0c.265 0 .628-.167.771-.636.068-.204.082-.41.082-.659 0-.265 0-.755-.285-1.05-.157-.156-.361-.246-.559-.246-.215 0-.42.087-.56.238-.204.219-.303.562-.303 1.048 0 .231.019.427.06.614v.001.002c.178.638.653.688.794.688m-2.71-1.197c0-1.653.87-2.787 2.218-2.787.281 0 .524.04.742.123.275.105.368.21.494.354l.12.137v-.487h1.826v6.93h-1.885v-2.131-.153l-.135.12c-.204.186-.513.466-1.23.466-1.07 0-2.15-.842-2.15-2.572" transform="matrix(5.2716063 0 0 -5.2716063 654.88796 547.40814)"/><path d="m0 0c.048.22.173.768.832.768.3 0 .646-.176.744-.572l.022-.131.015-.154h-1.632zm1.883-1.446c-.217-.471-.555-.7-.983-.7-.183 0-.445.044-.657.256-.243.243-.255.497-.264.725l-.004.078h3.554c-.018.76-.048 1.573-.752 2.269-.629.609-1.432.805-1.994.805-1.633 0-2.73-1.138-2.73-2.729 0-.722.241-1.384.679-1.869.493-.543 1.204-.899 2.06-.899 1.146 0 2.034.551 2.633 1.421-.138.058-1.442.6-1.542.643" transform="matrix(5.2716063 0 0 -5.2716063 619.21025 550.32802)"/><path d="m0 0 .828 2.678.807-2.678zm2.389-2.52h2.208c-.068.178-2.555 6.85-2.587 6.937h-2.346c-.032-.086-2.58-6.757-2.649-6.937h2.206l.329 1.038h2.515z" transform="matrix(5.2716063 0 0 -5.2716063 589.89431 505.90743)"/><path d="m0 0c.02-.103.03-.207.03-.307v-2.746h1.885v2.716c0 .108 0 .331.106.529.128.241.33.364.673.364.775 0 .748-.636.748-.942v-2.667h1.884c0 .131.001 3.284.001 3.284l-.001.004c-.009.469-.02 1-.461 1.432-.31.311-.808.489-1.365.489-1.209 0-1.546-.641-1.641-.855l-.057-.132-.065.128c-.132.253-.31.544-.952.744-.301.095-.575.115-.754.115-1.048 0-1.314-.498-1.474-.758l-.137-.222v.853h-1.797v-5.082h1.886v2.768l.002.033c.009.173.021.388.214.582.143.144.321.226.558.226.299 0 .624-.145.717-.556" transform="matrix(5.2716063 0 0 -5.2716063 634.81265 503.09866)"/><path d="m0 0c.047.22.173.77.832.77.3 0 .646-.177.742-.573l.024-.133.015-.153h-1.633zm1.882-1.447c-.217-.471-.555-.698-.983-.698-.183 0-.445.043-.656.255-.243.242-.256.498-.266.726l-.003.077h3.555c-.02.761-.05 1.574-.753 2.269-.629.609-1.431.805-1.994.805-1.633 0-2.729-1.138-2.729-2.729 0-.721.24-1.384.679-1.869.492-.543 1.205-.899 2.059-.899 1.146 0 2.033.551 2.634 1.422-.137.056-1.443.599-1.543.641" transform="matrix(5.2716063 0 0 -5.2716063 677.14837 501.737)"/><path d="m0 0h-1.807v-5.121h1.875v2.403.003c.01.322.034 1.173 1.286 1.173.115 0 .3-.006.413-.013v1.633c-.704-.002-1.128-.131-1.653-.6l-.114-.101z" transform="matrix(5.2716063 0 0 -5.2716063 709.11963 492.19706)"/><path d="m722.03029 492.34618h10.69084v26.87994h-10.69084zm0-9.75243h10.69084v7.10612h-10.69084z"/><path d="m0 0c.225.225.371.474.49.724-.1.055-1.333.731-1.457.799-.104-.334-.351-.889-.961-.889-.429 0-.941.214-.941 1.237 0 .889.379 1.442.99 1.442.438 0 .749-.264.909-.81.128.072 1.35.762 1.457.824-.098.16-.227.337-.401.51-.763.775-1.746.83-2.063.83-.868 0-1.578-.305-2.052-.8-.449-.46-.707-1.181-.707-1.938 0-1.646 1.037-2.777 2.641-2.777 1.133 0 1.807.551 2.095.848" transform="matrix(5.2716063 0 0 -5.2716063 761.376 515.71577)"/><path d="m0 0h.002l.001.001c.16.055.318.091.471.127l.053.012c.197.056.388.123.573.187l.113.04v-.096c0-.178 0-.357-.104-.585-.193-.427-.699-.592-.995-.592-.416 0-.57.228-.57.406 0 .078.033.331.456.5m-.426-2.143c.919 0 1.381.32 1.629.492l.118.081v-.463h1.798c-.096.159-.119.286-.119.567v2.837c0 .296 0 .744-.288 1.114-.347.446-1.04.739-2.059.739-.769 0-1.356-.151-1.793-.378-.662-.348-.807-.871-.88-1.313.15.004 1.66.044 1.757.046.081.405.276.538.73.538.612 0 .744-.258.755-.646l.002-.054-.051-.014c-.309-.089-.528-.139-1.09-.217-.85-.113-1.411-.186-1.865-.648-.273-.274-.412-.624-.412-1.041 0-.76.466-1.64 1.768-1.64" transform="matrix(5.2716063 0 0 -5.2716063 778.40272 508.47784)"/><path d="m0 0v-2.786h1.886v3.218c0 .273 0 1.071-.49 1.55-.314.296-.745.453-1.299.453-1.065 0-1.389-.517-1.564-.765l-.133-.188v.824h-1.777v-5.092h1.885v2.716c0 .224.01.904.763.904.757 0 .729-.607.729-.834" transform="matrix(5.2716063 0 0 -5.2716063 817.50539 504.50676)"/><path d="m0 0c-.22.355-.337.847-.337 1.423 0 .269 0 1.089.541 1.61.147.146.469.393.98.393.936 0 1.321-.782 1.495-1.188.117.059 1.62.808 1.734.865-.134.245-.321.565-.589.84-.688.709-1.658 1.113-2.728 1.113-1.069 0-1.976-.414-2.623-1.17-.572-.669-.901-1.648-.901-2.59 0-.933.303-1.856.852-2.497.633-.741 1.558-1.145 2.672-1.145 1.048 0 1.987.369 2.642 1.015.307.306.524.702.686 1.007-.114.055-1.64.794-1.761.852-.334-.916-.991-1.176-1.468-1.176-.526 0-.929.218-1.195.648" transform="matrix(5.2716063 0 0 -5.2716063 695.93751 556.5148)"/><path d="m0 0c-.879 0-1.012.886-1.012 1.414 0 .507.131 1.361.999 1.383.273.009.495-.069.663-.231.232-.225.35-.606.35-1.132 0-1.185-.544-1.434-1-1.434m2.131 3.422c-.223.211-.873.719-2.083.73-.913.005-1.672-.28-2.193-.799-.486-.482-.742-1.208-.742-1.998 0-.711.235-1.411.661-1.869.494-.534 1.243-.83 2.167-.83.909 0 1.667.271 2.19.758.506.472.773 1.189.773 1.971 0 .764-.295 1.579-.773 2.037" transform="matrix(5.2716063 0 0 -5.2716063 757.89461 561.68998)"/><path d="m0 0c-.24.124-.453.173-1.348.377l-.04.01c-.669.165-.828.2-.828.411 0 .126.065.334.502.334.536 0 1.015-.291 1.355-.503.068.061.909.829 1.013.922-.244.185-.626.475-1.267.628-.395.091-.766.136-1.132.136-.763 0-1.351-.209-1.749-.587-.311-.302-.49-.761-.49-1.163 0-1.033.881-1.317 1.356-1.455.455-.135.872-.204 1.05-.233.198-.029.569-.077.569-.375 0-.263-.301-.382-.598-.382-.273 0-.545.056-.832.172-.371.158-.612.359-.789.533-.083-.077-.941-.866-1.041-.957.419-.341 1.263-1.042 2.681-1.042 1.621 0 2.347.918 2.347 1.882 0 .552-.27 1.029-.759 1.292" transform="matrix(5.2716063 0 0 -5.2716063 797.42318 552.03448)"/><path d="m0 0c-.239.124-.452.173-1.349.377l-.039.01c-.668.165-.828.2-.828.411 0 .126.066.334.502.334.536 0 1.015-.291 1.356-.503.067.061.908.829 1.013.922-.245.185-.627.475-1.267.628-.396.091-.766.136-1.133.136-.763 0-1.351-.209-1.749-.587-.311-.302-.489-.761-.489-1.163 0-1.033.882-1.317 1.354-1.455.456-.135.873-.204 1.051-.233.199-.029.568-.077.568-.375 0-.263-.3-.382-.597-.382-.273 0-.545.056-.833.172-.37.158-.61.359-.788.533-.083-.077-.941-.866-1.041-.957.419-.341 1.262-1.042 2.681-1.042 1.622 0 2.346.918 2.346 1.882 0 .552-.269 1.029-.758 1.292" transform="matrix(5.2716063 0 0 -5.2716063 825.5483 552.03448)"/><path d="m0 0h-1.807v-5.121h1.876v2.403.004c.009.321.034 1.174 1.285 1.174.115 0 .301-.008.414-.016v1.635c-.704-.004-1.128-.132-1.654-.602l-.114-.1z" transform="matrix(5.2716063 0 0 -5.2716063 731.45754 540.78808)"/></g></svg>

<?xml version="1.0" encoding="UTF-8" standalone="no"?>
<!-- Created with Inkscape (http://www.inkscape.org/) -->

<svg
   xmlns:dc="http://purl.org/dc/elements/1.1/"
   xmlns:cc="http://creativecommons.org/ns#"
   xmlns:rdf="http://www.w3.org/1999/02/22-rdf-syntax-ns#"
   xmlns:svg="http://www.w3.org/2000/svg"
   xmlns="http://www.w3.org/2000/svg"
   version="1.1"
   width="468.85611"
   height="158.93318"
   id="svg7019">
  <defs
     id="defs7021" />
  <g
     transform="translate(-361.68805,-462.29359)"
     id="layer1">
    <g
       transform="matrix(4.1485983,0,0,-4.1485983,519.62538,515.60327)"
       id="g6005"
       style="fill:#ff0000">
      <path
         d="m 0,0 -12.61,0 0,12.609 -12.609,0 0,-12.609 -12.61,0 0,-12.609 12.61,0 0,-12.61 12.609,0 0,12.61 12.61,0 L 0,0 z"
         id="path6007"
         style="fill:#ff0000;fill-opacity:1;fill-rule:nonzero;stroke:none" />
    </g>
    <g
       transform="matrix(5.2716063,0,0,-5.2716063,590.48265,547.35171)"
       id="g5943"
       style="fill:#000000;stroke:none">
      <path
         d="m 0,0 -0.981,0 0,1.688 0.971,0 C 0.331,1.688 1.129,1.683 1.129,0.846 1.129,-0.008 0.309,0 0,0 m 1.727,-1.038 0.12,0.048 c 0.307,0.123 0.571,0.227 0.824,0.498 0.339,0.344 0.51,0.825 0.51,1.372 0,0.7 -0.303,1.618 -1.155,1.98 C 1.578,3.049 0.893,3.072 0.344,3.072 l -3.386,0 0,-6.939 2.061,0 0,2.511 0.756,0 1.387,-2.511 2.272,0 c -0.116,0.192 -1.666,2.761 -1.666,2.761 l -0.041,0.068 z"
         id="path5945"
         style="fill:#000000;fill-opacity:1;fill-rule:nonzero;stroke:none" />
    </g>
    <g
       transform="matrix(5.2716063,0,0,-5.2716063,654.88796,547.40814)"
       id="g5947"
       style="fill:#000000;stroke:none">
      <path
         d="m 0,0 c 0.265,0 0.628,-0.167 0.771,-0.636 0.068,-0.204 0.082,-0.41 0.082,-0.659 0,-0.265 0,-0.755 -0.285,-1.05 -0.157,-0.156 -0.361,-0.246 -0.559,-0.246 -0.215,0 -0.42,0.087 -0.56,0.238 -0.204,0.219 -0.303,0.562 -0.303,1.048 0,0.231 0.019,0.427 0.06,0.614 l 0,0.001 0,0.002 C -0.616,-0.05 -0.141,0 0,0 m -2.71,-1.197 c 0,-1.653 0.87,-2.787 2.218,-2.787 0.281,0 0.524,0.04 0.742,0.123 0.275,0.105 0.368,0.21 0.494,0.354 l 0.12,0.137 0,-0.487 1.826,0 0,6.93 -1.885,0 0,-2.131 0,-0.153 -0.135,0.12 c -0.204,0.186 -0.513,0.466 -1.23,0.466 -1.07,0 -2.15,-0.842 -2.15,-2.572"
         id="path5949"
         style="fill:#000000;fill-opacity:1;fill-rule:nonzero;stroke:none" />
    </g>
    <g
       transform="matrix(5.2716063,0,0,-5.2716063,619.21025,550.32802)"
       id="g5951"
       style="fill:#000000;stroke:none">
      <path
         d="m 0,0 c 0.048,0.22 0.173,0.768 0.832,0.768 0.3,0 0.646,-0.176 0.744,-0.572 l 0.022,-0.131 0.015,-0.154 -1.632,0 L 0,0 z m 1.883,-1.446 c -0.217,-0.471 -0.555,-0.7 -0.983,-0.7 -0.183,0 -0.445,0.044 -0.657,0.256 -0.243,0.243 -0.255,0.497 -0.264,0.725 l -0.004,0.078 3.554,0 C 3.511,-0.327 3.481,0.486 2.777,1.182 2.148,1.791 1.345,1.987 0.783,1.987 c -1.633,0 -2.73,-1.138 -2.73,-2.729 0,-0.722 0.241,-1.384 0.679,-1.869 0.493,-0.543 1.204,-0.899 2.06,-0.899 1.146,0 2.034,0.551 2.633,1.421 -0.138,0.058 -1.442,0.6 -1.542,0.643"
         id="path5953"
         style="fill:#000000;fill-opacity:1;fill-rule:nonzero;stroke:none" />
    </g>
    <g
       transform="matrix(5.2716063,0,0,-5.2716063,589.89431,505.90743)"
       id="g5955"
       style="fill:#000000;stroke:none">
      <path
         d="M 0,0 0.828,2.678 1.635,0 0,0 z m 2.389,-2.52 2.208,0 C 4.529,-2.342 2.042,4.33 2.01,4.417 l -2.346,0 C -0.368,4.331 -2.916,-2.34 -2.985,-2.52 l 2.206,0 0.329,1.038 2.515,0 0.324,-1.038"
         id="path5957"
         style="fill:#000000;fill-opacity:1;fill-rule:nonzero;stroke:none" />
    </g>
    <g
       transform="matrix(5.2716063,0,0,-5.2716063,634.81265,503.09866)"
       id="g5959"
       style="fill:#000000;stroke:none">
      <path
         d="m 0,0 c 0.02,-0.103 0.03,-0.207 0.03,-0.307 l 0,-2.746 1.885,0 0,2.716 c 0,0.108 0,0.331 0.106,0.529 0.128,0.241 0.33,0.364 0.673,0.364 0.775,0 0.748,-0.636 0.748,-0.942 l 0,-2.667 1.884,0 c 0,0.131 0.001,3.284 0.001,3.284 L 5.326,0.235 C 5.317,0.704 5.306,1.235 4.865,1.667 4.555,1.978 4.057,2.156 3.5,2.156 2.291,2.156 1.954,1.515 1.859,1.301 L 1.802,1.169 1.737,1.297 C 1.605,1.55 1.427,1.841 0.785,2.041 0.484,2.136 0.21,2.156 0.031,2.156 c -1.048,0 -1.314,-0.498 -1.474,-0.758 l -0.137,-0.222 0,0.853 -1.797,0 0,-5.082 1.886,0 0,2.768 0.002,0.033 c 0.009,0.173 0.021,0.388 0.214,0.582 0.143,0.144 0.321,0.226 0.558,0.226 C -0.418,0.556 -0.093,0.411 0,0"
         id="path5961"
         style="fill:#000000;fill-opacity:1;fill-rule:nonzero;stroke:none" />
    </g>
    <g
       transform="matrix(5.2716063,0,0,-5.2716063,677.14837,501.737)"
       id="g5963"
       style="fill:#000000;stroke:none">
      <path
         d="m 0,0 c 0.047,0.22 0.173,0.77 0.832,0.77 0.3,0 0.646,-0.177 0.742,-0.573 l 0.024,-0.133 0.015,-0.153 -1.633,0 L 0,0 z M 1.882,-1.447 C 1.665,-1.918 1.327,-2.145 0.899,-2.145 0.716,-2.145 0.454,-2.102 0.243,-1.89 0,-1.648 -0.013,-1.392 -0.023,-1.164 l -0.003,0.077 3.555,0 C 3.509,-0.326 3.479,0.487 2.776,1.182 2.147,1.791 1.345,1.987 0.782,1.987 c -1.633,0 -2.729,-1.138 -2.729,-2.729 0,-0.721 0.24,-1.384 0.679,-1.869 0.492,-0.543 1.205,-0.899 2.059,-0.899 1.146,0 2.033,0.551 2.634,1.422 -0.137,0.056 -1.443,0.599 -1.543,0.641"
         id="path5965"
         style="fill:#000000;fill-opacity:1;fill-rule:nonzero;stroke:none" />
    </g>
    <g
       transform="matrix(5.2716063,0,0,-5.2716063,709.11963,492.19706)"
       id="g5967"
       style="fill:#000000;stroke:none">
      <path
         d="m 0,0 -1.807,0 0,-5.121 1.875,0 0,2.403 0,0.003 c 0.01,0.322 0.034,1.173 1.286,1.173 0.115,0 0.3,-0.006 0.413,-0.013 l 0,1.633 C 1.063,0.076 0.639,-0.053 0.114,-0.522 L 0,-0.623 0,0 z"
         id="path5969"
         style="fill:#000000;fill-opacity:1;fill-rule:nonzero;stroke:none" />
    </g>
    <path
       d="m 722.03029,492.34618 10.69084,0 0,26.87994 -10.69084,0 0,-26.87994 z m 0,-9.75243 10.69084,0 0,7.10612 -10.69084,0 0,-7.10612 z"
       id="path5971"
       style="fill:#000000;fill-opacity:1;fill-rule:nonzero;stroke:none" />
    <g
       transform="matrix(5.2716063,0,0,-5.2716063,761.376,515.71577)"
       id="g5973"
       style="fill:#000000;stroke:none">
      <path
         d="M 0,0 C 0.225,0.225 0.371,0.474 0.49,0.724 0.39,0.779 -0.843,1.455 -0.967,1.523 -1.071,1.189 -1.318,0.634 -1.928,0.634 c -0.429,0 -0.941,0.214 -0.941,1.237 0,0.889 0.379,1.442 0.99,1.442 0.438,0 0.749,-0.264 0.909,-0.81 0.128,0.072 1.35,0.762 1.457,0.824 -0.098,0.16 -0.227,0.337 -0.401,0.51 -0.763,0.775 -1.746,0.83 -2.063,0.83 -0.868,0 -1.578,-0.305 -2.052,-0.8 -0.449,-0.46 -0.707,-1.181 -0.707,-1.938 0,-1.646 1.037,-2.777 2.641,-2.777 1.133,0 1.807,0.551 2.095,0.848"
         id="path5975"
         style="fill:#000000;fill-opacity:1;fill-rule:nonzero;stroke:none" />
    </g>
    <g
       transform="matrix(5.2716063,0,0,-5.2716063,778.40272,508.47784)"
       id="g5977"
       style="fill:#000000;stroke:none">
      <path
         d="m 0,0 0.002,0 0.001,0.001 c 0.16,0.055 0.318,0.091 0.471,0.127 L 0.527,0.14 C 0.724,0.196 0.915,0.263 1.1,0.327 l 0.113,0.04 0,-0.096 c 0,-0.178 0,-0.357 -0.104,-0.585 -0.193,-0.427 -0.699,-0.592 -0.995,-0.592 -0.416,0 -0.57,0.228 -0.57,0.406 0,0.078 0.033,0.331 0.456,0.5 m -0.426,-2.143 c 0.919,0 1.381,0.32 1.629,0.492 l 0.118,0.081 0,-0.463 1.798,0 C 3.023,-1.874 3,-1.747 3,-1.466 L 3,1.371 C 3,1.667 3,2.115 2.712,2.485 2.365,2.931 1.672,3.224 0.653,3.224 -0.116,3.224 -0.703,3.073 -1.14,2.846 -1.802,2.498 -1.947,1.975 -2.02,1.533 c 0.15,0.004 1.66,0.044 1.757,0.046 0.081,0.405 0.276,0.538 0.73,0.538 0.612,0 0.744,-0.258 0.755,-0.646 L 1.224,1.417 1.173,1.403 C 0.864,1.314 0.645,1.264 0.083,1.186 -0.767,1.073 -1.328,1 -1.782,0.538 -2.055,0.264 -2.194,-0.086 -2.194,-0.503 c 0,-0.76 0.466,-1.64 1.768,-1.64"
         id="path5979"
         style="fill:#000000;fill-opacity:1;fill-rule:nonzero;stroke:none" />
    </g>
    <g
       transform="matrix(5.2716063,0,0,-5.2716063,817.50539,504.50676)"
       id="g5981"
       style="fill:#000000;stroke:none">
      <path
         d="m 0,0 0,-2.786 1.886,0 0,3.218 c 0,0.273 0,1.071 -0.49,1.55 C 1.082,2.278 0.651,2.435 0.097,2.435 -0.968,2.435 -1.292,1.918 -1.467,1.67 L -1.6,1.482 l 0,0.824 -1.777,0 0,-5.092 1.885,0 0,2.716 c 0,0.224 0.01,0.904 0.763,0.904 C 0.028,0.834 0,0.227 0,0"
         id="path5983"
         style="fill:#000000;fill-opacity:1;fill-rule:nonzero;stroke:none" />
    </g>
    <g
       transform="matrix(5.2716063,0,0,-5.2716063,695.93751,556.5148)"
       id="g5985"
       style="fill:#000000;stroke:none">
      <path
         d="m 0,0 c -0.22,0.355 -0.337,0.847 -0.337,1.423 0,0.269 0,1.089 0.541,1.61 0.147,0.146 0.469,0.393 0.98,0.393 0.936,0 1.321,-0.782 1.495,-1.188 0.117,0.059 1.62,0.808 1.734,0.865 C 4.279,3.348 4.092,3.668 3.824,3.943 3.136,4.652 2.166,5.056 1.096,5.056 0.027,5.056 -0.88,4.642 -1.527,3.886 -2.099,3.217 -2.428,2.238 -2.428,1.296 c 0,-0.933 0.303,-1.856 0.852,-2.497 0.633,-0.741 1.558,-1.145 2.672,-1.145 1.048,0 1.987,0.369 2.642,1.015 0.307,0.306 0.524,0.702 0.686,1.007 C 4.31,-0.269 2.784,0.47 2.663,0.528 2.329,-0.388 1.672,-0.648 1.195,-0.648 0.669,-0.648 0.266,-0.43 0,0"
         id="path5987"
         style="fill:#000000;fill-opacity:1;fill-rule:nonzero;stroke:none" />
    </g>
    <g
       transform="matrix(5.2716063,0,0,-5.2716063,757.89461,561.68998)"
       id="g5989"
       style="fill:#000000;stroke:none">
      <path
         d="m 0,0 c -0.879,0 -1.012,0.886 -1.012,1.414 0,0.507 0.131,1.361 0.999,1.383 C 0.26,2.806 0.482,2.728 0.65,2.566 0.882,2.341 1,1.96 1,1.434 1,0.249 0.456,0 0,0 M 2.131,3.422 C 1.908,3.633 1.258,4.141 0.048,4.152 -0.865,4.157 -1.624,3.872 -2.145,3.353 -2.631,2.871 -2.887,2.145 -2.887,1.355 c 0,-0.711 0.235,-1.411 0.661,-1.869 0.494,-0.534 1.243,-0.83 2.167,-0.83 0.909,0 1.667,0.271 2.19,0.758 0.506,0.472 0.773,1.189 0.773,1.971 0,0.764 -0.295,1.579 -0.773,2.037"
         id="path5991"
         style="fill:#000000;fill-opacity:1;fill-rule:nonzero;stroke:none" />
    </g>
    <g
       transform="matrix(5.2716063,0,0,-5.2716063,797.42318,552.03448)"
       id="g5993"
       style="fill:#000000;stroke:none">
      <path
         d="m 0,0 c -0.24,0.124 -0.453,0.173 -1.348,0.377 l -0.04,0.01 c -0.669,0.165 -0.828,0.2 -0.828,0.411 0,0.126 0.065,0.334 0.502,0.334 0.536,0 1.015,-0.291 1.355,-0.503 C -0.291,0.69 0.55,1.458 0.654,1.551 0.41,1.736 0.028,2.026 -0.613,2.179 -1.008,2.27 -1.379,2.315 -1.745,2.315 c -0.763,0 -1.351,-0.209 -1.749,-0.587 -0.311,-0.302 -0.49,-0.761 -0.49,-1.163 0,-1.033 0.881,-1.317 1.356,-1.455 0.455,-0.135 0.872,-0.204 1.05,-0.233 0.198,-0.029 0.569,-0.077 0.569,-0.375 0,-0.263 -0.301,-0.382 -0.598,-0.382 -0.273,0 -0.545,0.056 -0.832,0.172 -0.371,0.158 -0.612,0.359 -0.789,0.533 -0.083,-0.077 -0.941,-0.866 -1.041,-0.957 0.419,-0.341 1.263,-1.042 2.681,-1.042 1.621,0 2.347,0.918 2.347,1.882 C 0.759,-0.74 0.489,-0.263 0,0"
         id="path5995"
         style="fill:#000000;fill-opacity:1;fill-rule:nonzero;stroke:none" />
    </g>
    <g
       transform="matrix(5.2716063,0,0,-5.2716063,825.5483,552.03448)"
       id="g5997"
       style="fill:#000000;stroke:none">
      <path
         d="m 0,0 c -0.239,0.124 -0.452,0.173 -1.349,0.377 l -0.039,0.01 c -0.668,0.165 -0.828,0.2 -0.828,0.411 0,0.126 0.066,0.334 0.502,0.334 0.536,0 1.015,-0.291 1.356,-0.503 C -0.291,0.69 0.55,1.458 0.655,1.551 0.41,1.736 0.028,2.026 -0.612,2.179 -1.008,2.27 -1.378,2.315 -1.745,2.315 -2.508,2.315 -3.096,2.106 -3.494,1.728 -3.805,1.426 -3.983,0.967 -3.983,0.565 c 0,-1.033 0.882,-1.317 1.354,-1.455 0.456,-0.135 0.873,-0.204 1.051,-0.233 0.199,-0.029 0.568,-0.077 0.568,-0.375 0,-0.263 -0.3,-0.382 -0.597,-0.382 -0.273,0 -0.545,0.056 -0.833,0.172 -0.37,0.158 -0.61,0.359 -0.788,0.533 -0.083,-0.077 -0.941,-0.866 -1.041,-0.957 0.419,-0.341 1.262,-1.042 2.681,-1.042 1.622,0 2.346,0.918 2.346,1.882 C 0.758,-0.74 0.489,-0.263 0,0"
         id="path5999"
         style="fill:#000000;fill-opacity:1;fill-rule:nonzero;stroke:none" />
    </g>
    <g
       transform="matrix(5.2716063,0,0,-5.2716063,731.45754,540.78808)"
       id="g6001"
       style="fill:#000000;stroke:none">
      <path
         d="m 0,0 -1.807,0 0,-5.121 1.876,0 0,2.403 0,0.004 c 0.009,0.321 0.034,1.174 1.285,1.174 0.115,0 0.301,-0.008 0.414,-0.016 l 0,1.635 C 1.064,0.075 0.64,-0.053 0.114,-0.523 L 0,-0.623 0,0 z"
         id="path6003"
         style="fill:#000000;fill-opacity:1;fill-rule:nonzero;stroke:none" />
    </g>
  </g>
</svg>
